img/tg.svg

<svg width="34" height="33" viewBox="0 0 34 33" fill="none" xmlns="http://www.w3.org/2000/svg">
<rect x="0.5" width="33" height="33" rx="16.5" fill="#00AAFF"/>
<path d="M22.92 10.0921L8.7471 15.7942C7.77986 16.1995 7.78545 16.7624 8.56964 17.0135L12.2084 18.1978L20.6274 12.6558C21.0255 12.4031 21.3892 12.539 21.0903 12.8159L14.2692 19.2386H14.2676L14.2692 19.2394L14.0182 23.1526C14.3859 23.1526 14.5482 22.9766 14.7544 22.769L16.5218 20.9758L20.1982 23.809C20.876 24.1984 21.3628 23.9983 21.5315 23.1543L23.9448 11.288C24.1918 10.2547 23.5667 9.78681 22.92 10.0921Z" fill="white"/>
</svg>

<svg width="34" height="33" fill="none" xmlns="http://www.w3.org/2000/svg"><rect x=".5" width="33" height="33" rx="16.5" fill="#0AF"/><path d="M22.92 10.092 8.747 15.794c-.967.405-.962.968-.177 1.22l3.638 1.184 8.42-5.542c.398-.253.761-.117.462.16l-6.82 6.423h-.002.001l-.25 3.914c.367 0 .53-.176.735-.384l1.768-1.793 3.676 2.833c.678.39 1.165.19 1.334-.655l2.413-11.866c.247-1.033-.378-1.501-1.025-1.196Z" fill="#fff"/></svg>
